build/images/main/main-prize-underline.svg

<svg width="307" height="7" viewBox="0 0 307 7" preserveAspectRatio="none" fill="none" xmlns="http://www.w3.org/2000/svg">
<g clip-path="url(#clip0_1329_1761)">
<path d="M5.57865 5.78678C4.82773 6.56395 3.82117 6.99872 2.7733 6.9985H0L5.20973 1.46015C5.6449 0.997133 6.16163 0.629857 6.73036 0.379318C7.2991 0.128779 7.90869 -0.000109598 8.5243 2.01165e-05H11.1594L5.57865 5.78678ZM18.3541 2.01165e-05H15.7189C15.1033 1.40894e-05 14.4938 0.128959 13.9251 0.379491C13.3563 0.630023 12.8396 0.997234 12.4044 1.46015L7.1932 7.00002H9.9665C11.0144 7.00039 12.021 6.5656 12.7719 5.78829L18.3541 2.01165e-05ZM25.5473 2.01165e-05H22.9121C22.2965 1.40894e-05 21.687 0.128959 21.1183 0.379491C20.5495 0.630023 20.0328 0.997234 19.5976 1.46015L14.3864 7.00002H17.1569C18.2048 7.00039 19.2114 6.5656 19.9622 5.78829L25.5473 2.01165e-05ZM32.7405 2.01165e-05H30.1053C29.4897 1.40894e-05 28.8802 0.128959 28.3115 0.379491C27.7427 0.630023 27.226 0.997234 26.7908 1.46015L21.5796 7.00002H24.3522C25.4001 7.00039 26.4067 6.5656 27.1575 5.78829L32.7405 2.01165e-05ZM39.9337 2.01165e-05H37.2985C36.6829 -0.000109598 36.0733 0.128779 35.5046 0.379318C34.9359 0.629857 34.4191 0.997133 33.984 1.46015L28.7678 7.00002H31.5404C32.5883 7.00039 33.5949 6.5656 34.3458 5.78829L39.9337 2.01165e-05ZM47.1269 2.01165e-05H44.4917C43.8761 -0.000109598 43.2665 0.128779 42.6978 0.379318C42.1291 0.629857 41.6123 0.997133 41.1772 1.46015L35.9596 7.00002H38.7322C39.7801 7.00039 40.7867 6.5656 41.5375 5.78829L47.1269 2.01165e-05ZM54.3201 2.01165e-05H51.6849C51.0673 -0.00180488 50.4554 0.126261 49.8845 0.376848C49.3136 0.627435 48.7949 0.995597 48.3583 1.46015L43.1514 7.00002H45.9247C46.9726 7.00023 47.9791 6.56546 48.73 5.78829L54.3201 2.01165e-05ZM61.5133 2.01165e-05H58.8781C58.2605 -0.00180488 57.6486 0.126261 57.0777 0.376848C56.5068 0.627435 55.9881 0.995597 55.5515 1.46015L50.3432 7.00002H53.1165C54.1643 7.00023 55.1709 6.56546 55.9218 5.78829L61.5133 2.01165e-05ZM68.7065 2.01165e-05H66.0714C65.4537 -0.00168029 64.8419 0.126442 64.271 0.377022C63.7001 0.627602 63.1814 0.995699 62.7447 1.46015L57.5349 7.00002H60.3082C61.3561 7.00023 62.3627 6.56546 63.1136 5.78829L68.7065 2.01165e-05ZM75.8997 2.01165e-05H73.2645C72.6469 -0.00184645 72.035 0.1262 71.4641 0.37679C70.8931 0.627379 70.3745 0.995564 69.9379 1.46015L64.7267 7.00002H67.5C68.5479 7.00039 69.5545 6.5656 70.3054 5.78829L75.8997 2.01165e-05ZM83.0929 2.01165e-05H80.4578C79.8401 -0.00184645 79.2282 0.1262 78.6573 0.37679C78.0863 0.627379 77.5677 0.995564 77.1311 1.46015L71.9213 7.00002H74.6939C75.7418 7.00039 76.7485 6.5656 77.4993 5.78829L83.0929 2.01165e-05ZM90.2861 2.01165e-05H87.651C87.0333 -0.00180488 86.4214 0.126261 85.8505 0.376848C85.2796 0.627435 84.7609 0.995597 84.3243 1.46015L79.111 7.00002H81.8836C82.9315 7.00039 83.9381 6.5656 84.6889 5.78829L90.2861 2.01165e-05ZM97.4793 2.01165e-05H94.8442C94.2286 -0.000109598 93.619 0.128779 93.0502 0.379318C92.4815 0.629857 91.9648 0.997133 91.5296 1.46015L86.3199 7.00002H89.0932C90.1409 7.00044 91.1473 6.56562 91.8978 5.78829L97.4793 2.01165e-05ZM104.672 2.01165e-05H102.037C101.422 -0.000109598 100.812 0.128779 100.243 0.379318C99.6747 0.629857 99.158 0.997133 98.7228 1.46015L93.5131 7.00002H96.2864C97.3342 7.00023 98.3408 6.56546 99.0917 5.78829L104.672 2.01165e-05ZM111.866 2.01165e-05H109.231C108.615 -2.71252e-05 108.005 0.128899 107.437 0.379433C106.868 0.629968 106.351 0.9972 105.916 1.46015L100.706 7.00002H103.48C104.527 7.00023 105.534 6.56546 106.285 5.78829L111.866 2.01165e-05ZM119.059 2.01165e-05H116.424C115.808 1.40894e-05 115.199 0.128959 114.63 0.379491C114.061 0.630023 113.544 0.997234 113.109 1.46015L107.899 7.00002H110.673C111.721 7.00023 112.727 6.56546 113.478 5.78829L119.059 2.01165e-05ZM126.252 2.01165e-05H123.617C123.001 -5.13278e-05 122.392 0.128867 121.823 0.379405C121.255 0.629944 120.738 0.99719 120.303 1.46015L115.07 7.00002H117.843C118.891 7.00039 119.898 6.5656 120.649 5.78829L126.252 2.01165e-05ZM133.445 2.01165e-05H130.81C130.195 -0.000109598 129.585 0.128779 129.016 0.379318C128.447 0.629857 127.931 0.997133 127.496 1.46015L122.285 7.00002H125.058C126.106 7.00039 127.113 6.5656 127.864 5.78829L133.445 2.01165e-05ZM140.639 2.01165e-05H138.003C137.388 -0.000109598 136.778 0.128779 136.209 0.379318C135.641 0.629857 135.124 0.997133 134.689 1.46015L129.479 7.00002H132.252C133.3 7.00039 134.306 6.5656 135.057 5.78829L140.639 2.01165e-05ZM147.832 2.01165e-05H145.197C144.581 -0.000109598 143.971 0.128779 143.403 0.379318C142.834 0.629857 142.317 0.997133 141.882 1.46015L136.672 7.00002H139.446C140.493 7.00044 141.5 6.56562 142.25 5.78829L147.832 2.01165e-05ZM155.025 2.01165e-05H152.39C151.774 -2.71252e-05 151.165 0.128899 150.596 0.379433C150.027 0.629968 149.51 0.9972 149.075 1.46015L143.865 7.00002H146.639C147.687 7.00023 148.693 6.56546 149.444 5.78829L155.025 2.01165e-05Z" fill="white"/>
</g>
<g clip-path="url(#clip1_1329_1761)">
<path d="M157.579 5.78678C156.828 6.56395 155.821 6.99872 154.773 6.9985H152L157.21 1.46015C157.645 0.997133 158.162 0.629857 158.73 0.379318C159.299 0.128779 159.909 -0.000109598 160.524 2.01165e-05H163.159L157.579 5.78678ZM170.354 2.01165e-05H167.719C167.103 1.40894e-05 166.494 0.128959 165.925 0.379491C165.356 0.630023 164.84 0.997234 164.404 1.46015L159.193 7.00002H161.967C163.014 7.00039 164.021 6.5656 164.772 5.78829L170.354 2.01165e-05ZM177.547 2.01165e-05H174.912C174.297 1.40894e-05 173.687 0.128959 173.118 0.379491C172.55 0.630023 172.033 0.997234 171.598 1.46015L166.386 7.00002H169.157C170.205 7.00039 171.211 6.5656 171.962 5.78829L177.547 2.01165e-05ZM184.74 2.01165e-05H182.105C181.49 1.40894e-05 180.88 0.128959 180.311 0.379491C179.743 0.630023 179.226 0.997234 178.791 1.46015L173.58 7.00002H176.352C177.4 7.00039 178.407 6.5656 179.158 5.78829L184.74 2.01165e-05ZM191.934 2.01165e-05H189.299C188.683 -0.000109598 188.073 0.128779 187.505 0.379318C186.936 0.629857 186.419 0.997133 185.984 1.46015L180.768 7.00002H183.54C184.588 7.00039 185.595 6.5656 186.346 5.78829L191.934 2.01165e-05ZM199.127 2.01165e-05H196.492C195.876 -0.000109598 195.267 0.128779 194.698 0.379318C194.129 0.629857 193.612 0.997133 193.177 1.46015L187.96 7.00002H190.732C191.78 7.00039 192.787 6.5656 193.538 5.78829L199.127 2.01165e-05ZM206.32 2.01165e-05H203.685C203.067 -0.00180488 202.455 0.126261 201.884 0.376848C201.314 0.627435 200.795 0.995597 200.358 1.46015L195.151 7.00002H197.925C198.973 7.00023 199.979 6.56546 200.73 5.78829L206.32 2.01165e-05ZM213.513 2.01165e-05H210.878C210.261 -0.00180488 209.649 0.126261 209.078 0.376848C208.507 0.627435 207.988 0.995597 207.551 1.46015L202.343 7.00002H205.116C206.164 7.00023 207.171 6.56546 207.922 5.78829L213.513 2.01165e-05ZM220.706 2.01165e-05H218.071C217.454 -0.00168029 216.842 0.126442 216.271 0.377022C215.7 0.627602 215.181 0.995699 214.745 1.46015L209.535 7.00002H212.308C213.356 7.00023 214.363 6.56546 215.114 5.78829L220.706 2.01165e-05ZM227.9 2.01165e-05H225.265C224.647 -0.00184645 224.035 0.1262 223.464 0.37679C222.893 0.627379 222.374 0.995564 221.938 1.46015L216.727 7.00002H219.5C220.548 7.00039 221.555 6.5656 222.305 5.78829L227.9 2.01165e-05ZM235.093 2.01165e-05H232.458C231.84 -0.00184645 231.228 0.1262 230.657 0.37679C230.086 0.627379 229.568 0.995564 229.131 1.46015L223.921 7.00002H226.694C227.742 7.00039 228.748 6.5656 229.499 5.78829L235.093 2.01165e-05ZM242.286 2.01165e-05H239.651C239.033 -0.00180488 238.421 0.126261 237.851 0.376848C237.28 0.627435 236.761 0.995597 236.324 1.46015L231.111 7.00002H233.884C234.931 7.00039 235.938 6.5656 236.689 5.78829L242.286 2.01165e-05ZM249.479 2.01165e-05H246.844C246.229 -0.000109598 245.619 0.128779 245.05 0.379318C244.481 0.629857 243.965 0.997133 243.53 1.46015L238.32 7.00002H241.093C242.141 7.00044 243.147 6.56562 243.898 5.78829L249.479 2.01165e-05ZM256.672 2.01165e-05H254.037C253.422 -0.000109598 252.812 0.128779 252.243 0.379318C251.675 0.629857 251.158 0.997133 250.723 1.46015L245.513 7.00002H248.286C249.334 7.00023 250.341 6.56546 251.092 5.78829L256.672 2.01165e-05ZM263.866 2.01165e-05H261.231C260.615 -2.71252e-05 260.005 0.128899 259.437 0.379433C258.868 0.629968 258.351 0.9972 257.916 1.46015L252.706 7.00002H255.48C256.527 7.00023 257.534 6.56546 258.285 5.78829L263.866 2.01165e-05ZM271.059 2.01165e-05H268.424C267.808 1.40894e-05 267.199 0.128959 266.63 0.379491C266.061 0.630023 265.544 0.997234 265.109 1.46015L259.899 7.00002H262.673C263.721 7.00023 264.727 6.56546 265.478 5.78829L271.059 2.01165e-05ZM278.252 2.01165e-05H275.617C275.001 -5.13278e-05 274.392 0.128867 273.823 0.379405C273.255 0.629944 272.738 0.99719 272.303 1.46015L267.07 7.00002H269.843C270.891 7.00039 271.898 6.5656 272.649 5.78829L278.252 2.01165e-05ZM285.445 2.01165e-05H282.81C282.195 -0.000109598 281.585 0.128779 281.016 0.379318C280.447 0.629857 279.931 0.997133 279.496 1.46015L274.285 7.00002H277.058C278.106 7.00039 279.113 6.5656 279.864 5.78829L285.445 2.01165e-05ZM292.639 2.01165e-05H290.003C289.388 -0.000109598 288.778 0.128779 288.209 0.379318C287.641 0.629857 287.124 0.997133 286.689 1.46015L281.479 7.00002H284.252C285.3 7.00039 286.306 6.5656 287.057 5.78829L292.639 2.01165e-05ZM299.832 2.01165e-05H297.197C296.581 -0.000109598 295.971 0.128779 295.403 0.379318C294.834 0.629857 294.317 0.997133 293.882 1.46015L288.672 7.00002H291.446C292.493 7.00044 293.5 6.56562 294.25 5.78829L299.832 2.01165e-05ZM307.025 2.01165e-05H304.39C303.774 -2.71252e-05 303.165 0.128899 302.596 0.379433C302.027 0.629968 301.51 0.9972 301.075 1.46015L295.865 7.00002H298.639C299.687 7.00023 300.693 6.56546 301.444 5.78829L307.025 2.01165e-05Z" fill="white"/>
</g>
<defs>
<clipPath id="clip0_1329_1761">
<rect width="155" height="7" fill="white"/>
</clipPath>
<clipPath id="clip1_1329_1761">
<rect width="155" height="7" fill="white" transform="translate(152)"/>
</clipPath>
</defs>
</svg>

<svg width="307" height="7" preserveAspectRatio="none" fill="none" xmlns="http://www.w3.org/2000/svg"><g clip-path="url(#clip0_1329_1761)"><path d="M5.579 5.787a3.9 3.9 0 01-2.806 1.212H0L5.21 1.46A4.67 4.67 0 016.73.38 4.444 4.444 0 018.524 0h2.635L5.58 5.787zM18.354 0H15.72c-.616 0-1.225.129-1.794.38a4.678 4.678 0 00-1.52 1.08L7.192 7h2.774a3.898 3.898 0 002.805-1.212L18.354 0zm7.193 0h-2.635c-.615 0-1.225.129-1.794.38a4.678 4.678 0 00-1.52 1.08L14.386 7h2.77a3.898 3.898 0 002.806-1.212L25.547 0zm7.193 0h-2.635c-.615 0-1.225.129-1.794.38a4.678 4.678 0 00-1.52 1.08L21.58 7h2.772a3.898 3.898 0 002.805-1.212L32.74 0zm7.194 0h-2.636c-.615 0-1.225.129-1.793.38a4.677 4.677 0 00-1.521 1.08L28.768 7h2.772a3.898 3.898 0 002.806-1.212L39.934 0zm7.193 0h-2.635c-.616 0-1.225.129-1.794.38a4.677 4.677 0 00-1.52 1.08L35.96 7h2.772a3.898 3.898 0 002.806-1.212L47.127 0zm7.193 0h-2.635a4.443 4.443 0 00-1.8.377c-.571.25-1.09.619-1.527 1.083L43.151 7h2.774a3.9 3.9 0 002.805-1.212L54.32 0zm7.193 0h-2.635a4.443 4.443 0 00-1.8.377c-.571.25-1.09.619-1.527 1.083L50.343 7h2.773a3.9 3.9 0 002.806-1.212L61.513 0zm7.194 0H66.07a4.445 4.445 0 00-1.8.377c-.57.25-1.09.619-1.526 1.083L57.535 7h2.773a3.9 3.9 0 002.806-1.212L68.707 0zM75.9 0h-2.636a4.442 4.442 0 00-1.8.377c-.57.25-1.09.619-1.526 1.083L64.727 7H67.5a3.898 3.898 0 002.805-1.212L75.9 0zm7.193 0h-2.635a4.442 4.442 0 00-1.8.377c-.572.25-1.09.619-1.527 1.083L71.921 7h2.773a3.898 3.898 0 002.805-1.212L83.093 0zm7.193 0h-2.635a4.443 4.443 0 00-1.8.377c-.571.25-1.09.619-1.527 1.083L79.111 7h2.773a3.898 3.898 0 002.805-1.212L90.286 0zm7.193 0h-2.635c-.615 0-1.225.129-1.794.38a4.678 4.678 0 00-1.52 1.08L86.32 7h2.773a3.896 3.896 0 002.805-1.212L97.479 0zm7.193 0h-2.635c-.615 0-1.225.129-1.794.38a4.68 4.68 0 00-1.52 1.08L93.513 7h2.773a3.9 3.9 0 002.806-1.212L104.672 0zm7.194 0h-2.635c-.616 0-1.226.129-1.794.38a4.674 4.674 0 00-1.521 1.08L100.706 7h2.774a3.9 3.9 0 002.805-1.212L111.866 0zm7.193 0h-2.635c-.616 0-1.225.129-1.794.38a4.675 4.675 0 00-1.521 1.08L107.899 7h2.774a3.899 3.899 0 002.805-1.212L119.059 0zm7.193 0h-2.635c-.616 0-1.225.129-1.794.38a4.681 4.681 0 00-1.52 1.08L115.07 7h2.773a3.9 3.9 0 002.806-1.212L126.252 0zm7.193 0h-2.635c-.615 0-1.225.129-1.794.38a4.67 4.67 0 00-1.52 1.08L122.285 7h2.773a3.9 3.9 0 002.806-1.212L133.445 0zm7.194 0h-2.636c-.615 0-1.225.129-1.794.38a4.68 4.68 0 00-1.52 1.08L129.479 7h2.773a3.898 3.898 0 002.805-1.212L140.639 0zm7.193 0h-2.635a4.44 4.44 0 00-1.794.38 4.674 4.674 0 00-1.521 1.08L136.672 7h2.774a3.895 3.895 0 002.804-1.212L147.832 0zm7.193 0h-2.635c-.616 0-1.225.129-1.794.38a4.674 4.674 0 00-1.521 1.08L143.865 7h2.774a3.899 3.899 0 002.805-1.212L155.025 0z" fill="#fff"/></g><g clip-path="url(#clip1_1329_1761)"><path d="M157.579 5.787a3.9 3.9 0 01-2.806 1.212H152l5.21-5.539a4.68 4.68 0 011.52-1.08 4.447 4.447 0 011.794-.38h2.635l-5.58 5.787zM170.354 0h-2.635c-.616 0-1.225.129-1.794.38a4.685 4.685 0 00-1.521 1.08L159.193 7h2.774a3.9 3.9 0 002.805-1.212L170.354 0zm7.193 0h-2.635a4.45 4.45 0 00-1.794.38 4.681 4.681 0 00-1.52 1.08L166.386 7h2.771a3.898 3.898 0 002.805-1.212L177.547 0zm7.193 0h-2.635a4.45 4.45 0 00-1.794.38 4.681 4.681 0 00-1.52 1.08L173.58 7h2.772a3.9 3.9 0 002.806-1.212L184.74 0zm7.194 0h-2.635a4.44 4.44 0 00-1.794.38 4.674 4.674 0 00-1.521 1.08L180.768 7h2.772a3.9 3.9 0 002.806-1.212L191.934 0zm7.193 0h-2.635c-.616 0-1.225.129-1.794.38a4.674 4.674 0 00-1.521 1.08L187.96 7h2.772a3.9 3.9 0 002.806-1.212L199.127 0zm7.193 0h-2.635a4.445 4.445 0 00-1.801.377 4.69 4.69 0 00-1.526 1.083L195.151 7h2.774a3.899 3.899 0 002.805-1.212L206.32 0zm7.193 0h-2.635a4.443 4.443 0 00-1.8.377c-.571.25-1.09.619-1.527 1.083L202.343 7h2.773a3.901 3.901 0 002.806-1.212L213.513 0zm7.193 0h-2.635a4.446 4.446 0 00-1.8.377 4.67 4.67 0 00-1.526 1.083L209.535 7h2.773a3.901 3.901 0 002.806-1.212L220.706 0zm7.194 0h-2.635a4.444 4.444 0 00-1.801.377c-.571.25-1.09.619-1.526 1.083L216.727 7h2.773a3.896 3.896 0 002.805-1.212L227.9 0zm7.193 0h-2.635a4.444 4.444 0 00-1.801.377 4.679 4.679 0 00-1.526 1.083L223.921 7h2.773a3.898 3.898 0 002.805-1.212L235.093 0zm7.193 0h-2.635a4.437 4.437 0 00-1.8.377c-.571.25-1.09.619-1.527 1.083L231.111 7h2.773a3.9 3.9 0 002.805-1.212L242.286 0zm7.193 0h-2.635c-.615 0-1.225.129-1.794.38a4.67 4.67 0 00-1.52 1.08L238.32 7h2.773a3.897 3.897 0 002.805-1.212L249.479 0zm7.193 0h-2.635c-.615 0-1.225.129-1.794.38a4.68 4.68 0 00-1.52 1.08L245.513 7h2.773a3.901 3.901 0 002.806-1.212L256.672 0zm7.194 0h-2.635c-.616 0-1.226.129-1.794.38a4.674 4.674 0 00-1.521 1.08L252.706 7h2.774a3.9 3.9 0 002.805-1.212L263.866 0zm7.193 0h-2.635c-.616 0-1.225.129-1.794.38a4.675 4.675 0 00-1.521 1.08L259.899 7h2.774a3.899 3.899 0 002.805-1.212L271.059 0zm7.193 0h-2.635c-.616 0-1.225.129-1.794.38a4.681 4.681 0 00-1.52 1.08L267.07 7h2.773a3.9 3.9 0 002.806-1.212L278.252 0zm7.193 0h-2.635c-.615 0-1.225.129-1.794.38a4.67 4.67 0 00-1.52 1.08L274.285 7h2.773a3.9 3.9 0 002.806-1.212L285.445 0zm7.194 0h-2.636c-.615 0-1.225.129-1.794.38a4.68 4.68 0 00-1.52 1.08L281.479 7h2.773a3.898 3.898 0 002.805-1.212L292.639 0zm7.193 0h-2.635a4.44 4.44 0 00-1.794.38 4.674 4.674 0 00-1.521 1.08L288.672 7h2.774a3.895 3.895 0 002.804-1.212L299.832 0zm7.193 0h-2.635c-.616 0-1.225.129-1.794.38a4.674 4.674 0 00-1.521 1.08L295.865 7h2.774a3.899 3.899 0 002.805-1.212L307.025 0z" fill="#fff"/></g><defs><clipPath id="clip0_1329_1761"><path fill="#fff" d="M0 0h155v7H0z"/></clipPath><clipPath id="clip1_1329_1761"><path fill="#fff" transform="translate(152)" d="M0 0h155v7H0z"/></clipPath></defs></svg>
